X:1
T:Come drinke to me
T:Pammelia, #68 (1609)
T:Thomas Ravenscroft
%%score [ 1 2 3 4 ]
L:1/8
Q:1/4=84
M:2/2
K:C
V:1 treble nm="I"
V:2 treble nm="II"
V:3 treble nm="III"
V:4 treble nm="IV"
V:1
 C8 | D6 D2 | E4 E4 | F4 F4 | G4 G4 | A8 | E8 | A4 A4 | G6 G2 | F8 | E8 | D4 D4 | C8 :| %13
w: Come|drinke to|mee, and|I will|drinke to|thee|to|thee, and|then shall|we|full|well a-|gree.|
V:2
 z4 c2 c2 | B4 A4 | A2 B2 ^G4 | A4 z2 f2 | e2 e2 d4- | d2 A2 c4 | B4 z2 e2 | c2 A2 e4 | d8 | %9
w: I haue|loued the|iol- ly tank-|erd full|seu- en win-|* ters and|more, I|loude it so|long|
 z2 A2 A2 A2 | c4 G4 | A4 F4 | G8 :| %13
w: till that I|went vp-|on the|score,|
V:3
 E6 E2 | D4 F2 F2 | E6 E2 | D4 C4 | C4 B,4 | A,4 A4 | A4 ^G4 | A4 z2 c2 | B2 G2 c2 B2 | A6 A2 | %10
w: he that|loues not the|tank- erd|is no|hon- est|man, no|hon- est|man and|he is no right|soul- dier|
 G4 c4 | c4 B4 | c8 :| %13
w: that loues|not the|can:|
V:4
 (3:2:2G4 F2 (3E3 D C2 | (3:2:2F4 G2 (3A3 G F2 | (3:2:2G4 c2 (3B3 A ^G2 | (3:2:2A4 A2 (3F3 G A2 | %4
w: taooe the ca- ni- kin,|tosse the ca- ni- kin,|trole the ca- ni- kin|turne the ca- ni- kin,|
 G6 G2 | F4 E4 | E2 E2 E2 B,2 | C8 | z4 B,4 | C2 B,2 C2 D2 | E3 F G2 G2 | F4 D4 | E8 :| %13
w: hold good|sonne and|fill vs a fresh|can,|that|wee may quasse it|round a- bout from|man to|man.|

